pro/src/icons/stroke-location.svg

<svg width="48" height="48" viewBox="0 0 48 48" fill="none" xmlns="http://www.w3.org/2000/svg">
<path id="icon" fill-rule="evenodd" clip-rule="evenodd" d="M24 2.00122C21.3977 2.00122 18.9543 2.66563 16.823 3.82231C16.3376 4.08575 16.1577 4.69281 16.4211 5.17822C16.6845 5.66362 17.2916 5.84356 17.777 5.58013C19.6257 4.57681 21.7423 4.00122 24 4.00122C31.1777 4.00122 37 9.82351 37 17.0012C37 19.2515 36.0754 21.5966 35.2901 23.4391C34.9206 24.3059 32.331 29.2926 29.7917 34.1383C28.531 36.5442 27.2946 38.8931 26.3732 40.6406C25.9126 41.5144 25.5307 42.2377 25.2641 42.7426L24.8564 43.514C24.4688 44.1608 23.5294 44.1603 23.1426 43.5124L22.7406 42.7592C22.4781 42.2668 22.102 41.5609 21.6476 40.7064C20.739 38.9975 19.5177 36.695 18.2673 34.3203C15.7461 29.5322 13.1624 24.5554 12.7168 23.4557L12.7157 23.4529C11.7642 21.1248 11 19.2538 11 17.0012C11 14.0551 11.9751 11.3368 13.6259 9.16665C13.9603 8.72709 13.875 8.09969 13.4354 7.76532C12.9959 7.43095 12.3685 7.51623 12.0341 7.95579C10.1249 10.4657 9 13.6073 9 17.0012C9 19.6505 9.89602 21.8416 10.8045 24.0632L10.8632 24.2067L11.79 23.8312L10.8643 24.2095L10.8638 24.2082C11.3598 25.4313 14.0149 30.5372 16.4977 35.2521C17.7498 37.63 18.9723 39.935 19.8817 41.6454C20.3365 42.5006 20.713 43.2073 20.9759 43.7002L21.3881 44.4726C21.3917 44.4794 21.3955 44.4862 21.3993 44.493C21.401 44.4961 21.4028 44.4992 21.4046 44.5023C22.5597 46.4975 25.4403 46.4975 26.5954 44.5023L26.603 44.489L26.6144 44.4679L27.0326 43.6766C27.2994 43.1714 27.6815 42.4476 28.1424 41.5734C29.0642 39.825 30.3015 37.4745 31.5633 35.0666C34.069 30.2849 36.7194 25.1866 37.1299 24.2233C37.9046 22.4058 39 19.711 39 17.0012C39 8.71894 32.2823 2.00122 24 2.00122ZM25.73 44.0012L26.6144 44.4679C26.6144 44.468 26.614 44.4688 25.73 44.0012ZM20.0003 17.0012C20.0003 14.7935 21.7926 13.0012 24.0003 13.0012C24.5526 13.0012 25.0003 12.5535 25.0003 12.0012C25.0003 11.4489 24.5526 11.0012 24.0003 11.0012C20.688 11.0012 18.0003 13.6889 18.0003 17.0012C18.0003 20.3135 20.688 23.0012 24.0003 23.0012C27.3126 23.0012 30.0003 20.3135 30.0003 17.0012C30.0003 16.4489 29.5526 16.0012 29.0003 16.0012C28.448 16.0012 28.0003 16.4489 28.0003 17.0012C28.0003 19.2089 26.208 21.0012 24.0003 21.0012C21.7926 21.0012 20.0003 19.2089 20.0003 17.0012Z" fill="currentColor"/>
</svg>

<svg xmlns="http://www.w3.org/2000/svg" width="48" height="48" fill="none"><path id="icon" fill="currentColor" fill-rule="evenodd" d="M24 2.001c-2.602 0-5.046.665-7.177 1.821a1 1 0 0 0 .954 1.758A13 13 0 0 1 24 4.001c7.178 0 13 5.823 13 13 0 2.25-.925 4.596-1.71 6.438-.37.867-2.959 5.854-5.498 10.7a2952 2952 0 0 1-4.528 8.604l-.408.771a1 1 0 0 1-1.713-.002l-.402-.753a2235 2235 0 0 1-4.474-8.439c-2.52-4.788-5.105-9.765-5.55-10.864l-.001-.003C11.764 21.125 11 19.253 11 17c0-2.946.975-5.664 2.626-7.834a1 1 0 1 0-1.592-1.211A14.9 14.9 0 0 0 9 17c0 2.65.896 4.84 1.805 7.062l.058.144.927-.376-.926.378c.496 1.222 3.15 6.328 5.634 11.043a1849 1849 0 0 0 4.478 8.448l.412.773.011.02.006.01c1.155 1.995 4.035 1.995 5.19 0l.008-.014.011-.021.419-.791a3428 3428 0 0 0 4.53-8.61c2.506-4.782 5.156-9.88 5.567-10.844.775-1.817 1.87-4.512 1.87-7.222 0-8.282-6.718-15-15-15m1.73 42 .884.467zm-5.73-27c0-2.208 1.793-4 4-4a1 1 0 1 0 0-2c-3.312 0-6 2.688-6 6 0 3.313 2.688 6 6 6 3.313 0 6-2.687 6-6a1 1 0 1 0-2 0c0 2.208-1.792 4-4 4-2.207 0-4-1.792-4-4" clip-rule="evenodd"/></svg>
